images_sukapura_svg/cmd/32/sidebar.svg

<svg viewBox="0 0 32 32" xmlns="http://www.w3.org/2000/svg" xmlns:xlink="http://www.w3.org/1999/xlink"><linearGradient id="a" gradientTransform="matrix(0 1 -1 0 31.014146 -1)" gradientUnits="userSpaceOnUse" x1="26" x2="14" y1="12.014146" y2="12.014146"><stop offset="0" stop-color="#0040dd"/><stop offset="1" stop-color="#0a84ff"/></linearGradient><path d="m24 11h4v16h-4z" fill="#fff"/><path d="m4 11h19v16h-19z" fill="#fff"/><path d="m3 13v14c0 .554.446 1 1 1h18 1 5c.554 0 1-.446 1-1v-14h-1v14h-5-1-18v-14z" fill="#69696e"/><path d="m6 4c-1.662 0-3 1.338-3 3v6h1v-5.4609375c0-1.4063076 1.1327549-2.5390625 2.5390625-2.5390625h15.4609375 1 2.460938c1.406307 0 2.539062 1.1327549 2.539062 2.5390625v5.4609375h1v-6c0-1.662-1.338-3-3-3h-3-1z" fill="#69696e"/><path d="m6.5390625 5c-1.4063076 0-2.5390625 1.1327549-2.5390625 2.5390625v3.4609375h18 1 5v-3.4609375c0-1.4063076-1.132755-2.5390625-2.539062-2.5390625h-2.460938-1z" fill="#c8c8cb"/><path d="m23 4v1h1 1.460938c1.406307 0 2.539062 1.1327549 2.539062 2.5390625v5.4609375 14h-4v-16h-1v16 1h1 4c.554 0 1-.446 1-1v-14-6c0-1.662-1.338-3-3-3h-2z" fill="#69696e"/><path d="m24 11v1.306641l1.306641-1.306641zm2.720703 0-2.720703 2.720703v1.416016l4-4v-.136719zm1.279297 1.550781-4 4v1.414063l4-4zm0 2.828125-4 4v1.414063l4-4zm0 2.828125-4 4v1.414063l4-4zm0 2.828125-4 4v1.414063l4-4zm0 2.828125-3.136719 3.136719h1.416016l1.720703-1.720703zm0 2.830078-.306641.306641h.306641z" fill="#a2a2a7"/><path d="m4 10h24v1h-24z" fill="#69696e"/><path d="m25.014146 19c0-.554-.446-1-1-1h-6v-3a1.0001 1.0001 0 0 0 -1.707031-.707031l-5 5a1.0001 1.0001 0 0 0 0 1.414062l5 5a1.0001 1.0001 0 0 0 1.707031-.707031v-3h6c.554 0 1-.446 1-1z" fill="url(#a)"/></svg>

<?xml version="1.0" encoding="UTF-8" standalone="no"?>
<svg
   xmlns:dc="http://purl.org/dc/elements/1.1/"
   xmlns:cc="http://creativecommons.org/ns#"
   xmlns:rdf="http://www.w3.org/1999/02/22-rdf-syntax-ns#"
   xmlns:svg="http://www.w3.org/2000/svg"
   xmlns="http://www.w3.org/2000/svg"
   xmlns:sodipodi="http://sodipodi.sourceforge.net/DTD/sodipodi-0.dtd"
   xmlns:inkscape="http://www.inkscape.org/namespaces/inkscape"
   viewBox="0 0 32 32"
   version="1.1"
   id="svg14"
   sodipodi:docname="sidebar.svg"
   inkscape:version="0.92.3 (2405546, 2018-03-11)">
  <metadata
     id="metadata20">
    <rdf:RDF>
      <cc:Work
         rdf:about="">
        <dc:format>image/svg+xml</dc:format>
        <dc:type
           rdf:resource="http://purl.org/dc/dcmitype/StillImage" />
        <dc:title></dc:title>
      </cc:Work>
    </rdf:RDF>
  </metadata>
  <defs
     id="defs18">
    <linearGradient
       id="a"
       gradientUnits="userSpaceOnUse"
       x1="26"
       x2="14"
       y1="12.014146"
       y2="12.014146"
       gradientTransform="rotate(90,16.007073,15.007073)">
      <stop
         offset="0"
         stop-color="#0040dd"
         id="stop1011" />
      <stop
         offset="1"
         stop-color="#0a84ff"
         id="stop1013" />
    </linearGradient>
  </defs>
  <sodipodi:namedview
     pagecolor="#ffffff"
     bordercolor="#666666"
     borderopacity="1"
     objecttolerance="10"
     gridtolerance="10"
     guidetolerance="10"
     inkscape:pageopacity="0"
     inkscape:pageshadow="2"
     inkscape:window-width="1366"
     inkscape:window-height="716"
     id="namedview16"
     showgrid="true"
     inkscape:measure-start="0,0"
     inkscape:measure-end="0,0"
     inkscape:zoom="2.6074563"
     inkscape:cx="11.508002"
     inkscape:cy="-19.535508"
     inkscape:window-x="-8"
     inkscape:window-y="-8"
     inkscape:window-maximized="1"
     inkscape:current-layer="svg14">
    <inkscape:grid
       type="xygrid"
       id="grid837" />
  </sodipodi:namedview>
  <rect
     style="fill:#ffffff;fill-opacity:1;stroke:none;stroke-opacity:0.90980392"
     id="rect881"
     width="4"
     height="16"
     x="24"
     y="11" />
  <rect
     style="fill:#ffffff;fill-opacity:1;stroke:none;stroke-opacity:0.90980392"
     id="rect879"
     width="19"
     height="16"
     x="4"
     y="11" />
  <path
     style="fill:#69696e"
     d="M 3 13 L 3 27 C 3 27.554 3.446 28 4 28 L 22 28 L 23 28 L 28 28 C 28.554 28 29 27.554 29 27 L 29 13 L 28 13 L 28 27 L 23 27 L 22 27 L 4 27 L 4 13 L 3 13 z "
     id="path1021" />
  <path
     style="fill:#69696e"
     d="M 6 4 C 4.338 4 3 5.338 3 7 L 3 13 L 4 13 L 4 7.5390625 C 4 6.1327549 5.1327549 5 6.5390625 5 L 22 5 L 23 5 L 25.460938 5 C 26.867245 5 28 6.1327549 28 7.5390625 L 28 13 L 29 13 L 29 7 C 29 5.338 27.662 4 26 4 L 23 4 L 22 4 L 6 4 z "
     id="path1023" />
  <path
     style="fill:#c8c8cb"
     d="M 6.5390625 5 C 5.1327549 5 4 6.1327549 4 7.5390625 L 4 11 L 22 11 L 23 11 L 28 11 L 28 7.5390625 C 28 6.1327549 26.867245 5 25.460938 5 L 23 5 L 22 5 L 6.5390625 5 z "
     id="path1025" />
  <path
     style="fill:#69696e"
     d="M 23 4 L 23 5 L 24 5 L 25.460938 5 C 26.867245 5 28 6.1327549 28 7.5390625 L 28 13 L 28 27 L 24 27 L 24 11 L 23 11 L 23 27 L 23 28 L 24 28 L 28 28 C 28.554 28 29 27.554 29 27 L 29 13 L 29 7 C 29 5.338 27.662 4 26 4 L 24 4 L 23 4 z "
     id="path859" />
  <path
     style="fill:#a2a2a7;fill-opacity:1;stroke:none;stroke-opacity:0.90980392"
     d="M 24 11 L 24 12.306641 L 25.306641 11 L 24 11 z M 26.720703 11 L 24 13.720703 L 24 15.136719 L 28 11.136719 L 28 11 L 26.720703 11 z M 28 12.550781 L 24 16.550781 L 24 17.964844 L 28 13.964844 L 28 12.550781 z M 28 15.378906 L 24 19.378906 L 24 20.792969 L 28 16.792969 L 28 15.378906 z M 28 18.207031 L 24 22.207031 L 24 23.621094 L 28 19.621094 L 28 18.207031 z M 28 21.035156 L 24 25.035156 L 24 26.449219 L 28 22.449219 L 28 21.035156 z M 28 23.863281 L 24.863281 27 L 26.279297 27 L 28 25.279297 L 28 23.863281 z M 28 26.693359 L 27.693359 27 L 28 27 L 28 26.693359 z "
     id="rect883" />
  <rect
     style="fill:#69696e;fill-opacity:1;stroke:none;stroke-opacity:0.90980392"
     id="rect907"
     width="24"
     height="1"
     x="4"
     y="10" />
  <path
     inkscape:connector-curvature="0"
     style="fill:url(#a)"
     d="m 25.014146,19 c 0,-0.554 -0.446,-1 -1,-1 h -6 v -3 a 1.0001,1.0001 0 0 0 -1.707031,-0.707031 l -5,5 a 1.0001,1.0001 0 0 0 0,1.414062 l 5,5 A 1.0001,1.0001 0 0 0 18.014146,25 v -3 h 6 c 0.554,0 1,-0.446 1,-1 z"
     id="path1035" />
</svg>
